Numix/22x22/status/nm-signal-50-secure.svg

<?xml version="1.0" encoding="UTF-8" standalone="no"?>
<svg
   xmlns:dc="http://purl.org/dc/elements/1.1/"
   xmlns:cc="http://creativecommons.org/ns#"
   xmlns:rdf="http://www.w3.org/1999/02/22-rdf-syntax-ns#"
   xmlns:svg="http://www.w3.org/2000/svg"
   xmlns="http://www.w3.org/2000/svg"
   xmlns:sodipodi="http://sodipodi.sourceforge.net/DTD/sodipodi-0.dtd"
   xmlns:inkscape="http://www.inkscape.org/namespaces/inkscape"
   viewBox="0 0 22 22"
   id="svg4678"
   version="1.1"
   inkscape:version="0.48.4 r9939"
   width="100%"
   height="100%"
   sodipodi:docname="nm-signal-50-secure.svg">
  <metadata
     id="metadata4712">
    <rdf:RDF>
      <cc:Work
         rdf:about="">
        <dc:format>image/svg+xml</dc:format>
        <dc:type
           rdf:resource="http://purl.org/dc/dcmitype/StillImage" />
      </cc:Work>
    </rdf:RDF>
  </metadata>
  <defs
     id="defs4710" />
  <sodipodi:namedview
     pagecolor="#ffffff"
     bordercolor="#666666"
     borderopacity="1"
     objecttolerance="10"
     gridtolerance="10"
     guidetolerance="10"
     inkscape:pageopacity="0"
     inkscape:pageshadow="2"
     inkscape:window-width="640"
     inkscape:window-height="480"
     id="namedview4708"
     showgrid="false"
     inkscape:zoom="10.727273"
     inkscape:cx="11"
     inkscape:cy="11"
     inkscape:window-x="461"
     inkscape:window-y="142"
     inkscape:window-maximized="0"
     inkscape:current-layer="svg4678" />
  <g
     style="line-height:normal;color:#000000"
     id="g4516">
    <g
       style="opacity:0.3"
       transform="translate(0,1)"
       id="g4518">
      <path
         inkscape:connector-curvature="0"
         style="opacity:0.4"
         d="M 10.999998,3 C 7.6899008,3 4.6013708,4.1418465 2,6.1212781 L 2.1751849,6.4098025 3.8613125,8.7966837 C 5.9570075,7.290793 8.5132999,6.4086482 11.021903,6.4098025 13.530507,6.4109425 16.06645,7.293913 18.16059,8.7966837 L 19.824826,6.4098025 20,6.1212781 C 17.398628,4.1418465 14.310099,3 10.999998,3 z"
         id="path4520" />
      <path
         inkscape:connector-curvature="0"
         style="opacity:0.4"
         d="m 11.021825,7.5115235 c -2.3965651,0 -4.6389267,0.7796881 -6.5693475,2.1245735 l 1.5985458,2.281956 c 1.4816367,-0.945356 3.182445,-1.495067 4.9708017,-1.495067 1.788344,0 3.471558,0.549711 4.948898,1.495067 L 17.569269,9.636097 C 15.645317,8.2912116 13.418379,7.5115235 11.021825,7.5115235 z"
         id="path4522" />
      <path
         inkscape:connector-curvature="0"
         style="opacity:0.4"
         d="m 11.021825,11.524615 c -1.5723002,0 -3.0659401,0.464341 -4.3795693,1.259012 l 1.6423426,2.334424 c 0.84105,-0.41345 1.7547647,-0.655746 2.7153227,-0.655746 0.96696,0 1.893588,0.23705 2.737225,0.655746 l 1.620439,-2.334424 c -1.305348,-0.788111 -2.770414,-1.259012 -4.33576,-1.259012 z"
         id="path4524" />
      <path
         inkscape:connector-curvature="0"
         style="opacity:0.4"
         d="m 10.999998,15.590175 c -0.732914,0 -1.4264755,0.172342 -2.0802805,0.445895 L 10.999998,19 13.080294,16.009841 c -0.64836,-0.26985 -1.352577,-0.419666 -2.080296,-0.419666 z"
         id="path4526" />
    </g>
    <g
       style="fill:#dcdcdc"
       id="g4528">
      <path
         inkscape:connector-curvature="0"
         style="opacity:0.4"
         d="M 10.999998,3 C 7.6899008,3 4.6013708,4.1418465 2,6.1212781 L 2.1751849,6.4098025 3.8613125,8.7966837 C 5.9570075,7.290793 8.5132999,6.4086482 11.021903,6.4098025 13.530507,6.4109425 16.06645,7.293913 18.16059,8.7966837 L 19.824826,6.4098025 20,6.1212781 C 17.398628,4.1418465 14.310099,3 10.999998,3 z"
         id="path4530" />
      <path
         inkscape:connector-curvature="0"
         style="opacity:0.4"
         d="m 11.021825,7.5115235 c -2.3965651,0 -4.6389267,0.7796881 -6.5693475,2.1245735 l 1.5985458,2.281956 c 1.4816367,-0.945356 3.182445,-1.495067 4.9708017,-1.495067 1.788344,0 3.471558,0.549711 4.948898,1.495067 L 17.569269,9.636097 C 15.645317,8.2912116 13.418379,7.5115235 11.021825,7.5115235 z"
         id="path4532" />
      <path
         inkscape:connector-curvature="0"
         d="m 11.021825,11.524615 c -1.5723002,0 -3.0659401,0.464341 -4.3795693,1.259012 l 1.6423426,2.334424 c 0.84105,-0.41345 1.7547647,-0.655746 2.7153227,-0.655746 0.96696,0 1.893588,0.23705 2.737225,0.655746 l 1.620439,-2.334424 c -1.305348,-0.788111 -2.770414,-1.259012 -4.33576,-1.259012 z"
         id="path4534" />
      <path
         inkscape:connector-curvature="0"
         d="m 10.999998,15.590175 c -0.732914,0 -1.4264755,0.172342 -2.0802805,0.445895 L 10.999998,19 13.080294,16.009841 c -0.64836,-0.26985 -1.352577,-0.419666 -2.080296,-0.419666 z"
         id="path4536" />
    </g>
  </g>
  <g
     id="g4714"
     transform="translate(-2,-2)">
    <path
       id="path4704"
       d="m 19,14 c -1.108,0 -2,0.910763 -2,2.03125 L 17,17 c -0.554,0 -1,0.446 -1,1 l 0,3 c 0,0.554 0.446,1 1,1 l 4,0 c 0.554,0 1,-0.446 1,-1 l 0,-3 c 0,-0.554 -0.446,-1 -1,-1 l 0,-0.96875 C 21,14.910764 20.108,14 19,14 z m 0,1 c 0.554,0 1,0.442363 1,1 l 0,1 -2,0 0,-1 c 0,-0.557637 0.446,-1 1,-1 z"
       style="opacity:0.3"
       inkscape:connector-curvature="0" />
    <path
       id="path4706"
       d="m 19,13 c -1.108,0 -2,0.910763 -2,2.03125 L 17,16 c -0.554,0 -1,0.446 -1,1 l 0,3 c 0,0.554 0.446,1 1,1 l 4,0 c 0.554,0 1,-0.446 1,-1 l 0,-3 c 0,-0.554 -0.446,-1 -1,-1 l 0,-0.96875 C 21,13.910764 20.108,13 19,13 z m 0,1 c 0.554,0 1,0.442363 1,1 l 0,1 -2,0 0,-1 c 0,-0.557637 0.446,-1 1,-1 z"
       style="fill:#dcdcdc"
       inkscape:connector-curvature="0" />
  </g>
</svg>

<svg xmlns="http://www.w3.org/2000/svg" viewBox="0 0 22 22">
<g style="fill:none;stroke-linecap:round;stroke-width:1.7">
<g style="opacity:.4" transform="translate(-1 -1)">
<path style="opacity:.3;stroke:#000" d="m 2.85,11.144409 c 0,0 2.8977535,-3.294409 9.131958,-3.294409 6.203557,0 9.168042,3.3 9.168042,3.3"/>
<path style="stroke:#dcdcdc" d="m 2.85,10.144409 c 0,0 2.8977535,-3.2944092 9.131958,-3.2944092 C 18.185515,6.8499998 21.15,10.15 21.15,10.15"/>
</g>
<g style="opacity:.4" transform="translate(-1 -1)">
<path style="opacity:.3;stroke:#000" d="m 5.3499998,13.752608 c 0,0 2.1468917,-2.21577 6.6500012,-2.136936 4.54046,0.07949 6.649999,2.172525 6.649999,2.172525"/>
<path style="stroke:#dcdcdc" d="m 5.3499998,12.752608 c 0,0 2.1468917,-2.215771 6.6500012,-2.136937 4.54046,0.07949 6.649999,2.172526 6.649999,2.172526"/>
</g>
<path style="opacity:.3;stroke:#000" d="m 7.3499999,15.191046 c 0,0 0.9668981,-1.071983 3.5986811,-1.092208 2.598976,-0.01997 3.701319,1.092208 3.701319,1.092208"/>
<path style="stroke:#dcdcdc" d="m 7.3499999,14.191046 c 0,0 0.9668981,-1.071983 3.5986811,-1.092208 2.598976,-0.01997 3.701319,1.092208 3.701319,1.092208"/>
</g>
<g style="fill-rule:evenodd">
<path style="opacity:.3" d="m 10.145105,17 c -0.471902,0 -0.854895,0.298667 -0.854895,0.666667 0,0.136758 0.0529,0.263941 0.143587,0.369778 0,0 1.007602,0.801438 1.007602,0.801438 C 10.591259,18.938886 10.786534,19 11.000001,19 c 0.253303,0 0.480993,-0.08605 0.63758,-0.222693 0,0 0.900909,-0.710397 0.900909,-0.710397 0.107541,-0.111488 0.1713,-0.250094 0.1713,-0.400243 0,-0.368 -0.382993,-0.666667 -0.854895,-0.666667 0,0 -1.70979,0 -1.70979,0 z"/>
<path style="fill:#dcdcdc" d="m 10.145105,16 c -0.471902,0 -0.854895,0.298667 -0.854895,0.666667 0,0.136758 0.0529,0.263941 0.143587,0.369778 0,0 1.007602,0.801438 1.007602,0.801438 C 10.591259,17.938886 10.786534,18 11.000001,18 c 0.253303,0 0.480993,-0.08605 0.63758,-0.222693 0,0 0.900909,-0.710397 0.900909,-0.710397 0.107541,-0.111488 0.1713,-0.250094 0.1713,-0.400243 0,-0.368 -0.382993,-0.666667 -0.854895,-0.666667 0,0 -1.70979,0 -1.70979,0 z"/>
</g>
<path style="opacity:.3" d="M 19,14 C 17.892,14 17,14.910763 17,16.03125 L 17,17 C 16.446,17 16,17.446 16,18 L 16,21 C 16,21.554 16.446,22 17,22 L 21,22 C 21.554,22 22,21.554 22,21 L 22,18 C 22,17.446 21.554,17 21,17 L 21,16.03125 C 21,14.910764 20.108,14 19,14 z M 19,15 C 19.554,15 20,15.442363 20,16 L 20,17 L 18,17 L 18,16 C 18,15.442363 18.446,15 19,15 z"/>
<path style="fill:#dcdcdc" d="M 19,13 C 17.892,13 17,13.910763 17,15.03125 L 17,16 C 16.446,16 16,16.446 16,17 L 16,20 C 16,20.554 16.446,21 17,21 L 21,21 C 21.554,21 22,20.554 22,20 L 22,17 C 22,16.446 21.554,16 21,16 L 21,15.03125 C 21,13.910764 20.108,13 19,13 z M 19,14 C 19.554,14 20,14.442363 20,15 L 20,16 L 18,16 L 18,15 C 18,14.442363 18.446,14 19,14 z"/>
</svg>
